X:1
T:VALSE SENTIMENTALE
T:VALSE SENTIMENTALE
T:Op. 50, No. 13
T:F. Schubert
T:Public Domain
T:Public Domain
C:F. Schubert
Z:Public Domain
%%score { ( 1 3 ) | 2 }
L:1/8
Q:1/4=100
M:3/4
K:A
V:1 treble nm="Piano" snm="Pno."
V:3 treble 
V:2 bass 
V:1
!p! z6 | z2"^Zart (tenderly)" (ce dc | !>![cf]4 B2- | B2) B4 | !>![Be]4 A2- | A2 e4 | [Ae]4 G2- | %7
 G2 G4 | [Af]4 A2- | A2 e4 | [Fcf]4 B2- | B2 B4 | [Be]4 A2- | A2 e4 | !>![Af]4 G2- | G2 A2 B2 | %16
 [Aca]4 [Ac]2- |!<(! [Ac]2 z4!<)! |:!mf! !>!c4 !>!c2- | c2 g4 | g4 !>!g2- | %21
 g2 !wedge!^a2 !wedge!^b2 | c'4 !>!g2- | g2 g4 | g4 !>!g2- | g2 !wedge!^a2 !wedge!^b2 | %26
!>(! c'4 !>!g2-!>)! | g2!p! [cgc']2 [cgc']2 | [c=gc']4 [cgc']2- | [cgc']2 c'4 | %30
 [fc'f']4 [fc'f']2- | [fc'f']2!8va(! b4 | b4 a2- | a2!8va)! AcBA | A4 G2- | G2 A2 B2 |1 %36
!<(! [Ac]4 [Ac]2- | [Ac]2 ce^d!<)!!mf!c :|2!p! [Aca]6- ||[M:2/4] [Aca]2 z2 |] %40
V:2
!ped! A,,2 [A,CE]2 [A,CE]2 |!ped! A,,2!ped-up! [A,CE]2!ped-up!!ped! [A,CE]2 | %2
 D,2 [B,D]2!ped-up!!ped! [B,D]2 | D,2 [B,D]2!ped-up!!ped! [B,D]2 | E,2 [CE]2!ped-up!!ped! [CE]2 | %5
 E,2 [CE]2!ped-up!!ped! [CE]2 | E,2 [B,DE]2 [B,DE]2 | %7
!ped! E,2 [B,DE]2!ped-up!!ped! [B,DE]2!ped-up! | A,,2 [A,CE]2!ped-up!!ped! [A,CE]2 | %9
 A,,2 [A,CE]2!ped-up!!ped! [A,CE]2 | D,2 D2!ped-up!!ped! [DF]2 | D,2 [B,D]2!ped-up!!ped! [B,D]2 | %12
 E,2 [CE]2!ped-up!!ped! [CE]2 | E,2 [CE]2 [CE]2 |!ped! E,2 [DE]2!ped-up!!ped! [DE]2!ped-up! | %15
 E,2 [DE]2!ped-up!!ped! [DE]2 | A,,2 [A,CE]2!ped-up!!ped! [A,CE]2 | A,,2 [A,CE]2 [A,CE]2 |: %18
!ped! C,2 [G,C^E]2!ped-up!!ped! [G,CE]2!ped-up! | C,2 [G,C^E]2!ped-up!!ped! [G,CE]2 | %20
 G,,2 [G,^DF]2!ped-up!!ped! [G,DF]2 | G,,2 [G,^DF]2!ped-up!!ped! [G,DF]2 | C,2 [G,C^E]2 [G,CE]2 | %23
!ped! C,2 [G,C^E]2!ped-up!!ped! [G,CE]2!ped-up! | G,,2 [G,^DF]2!ped-up!!ped! [G,DF]2 | %25
 G,,2 [G,^DF]2!ped-up!!ped! [G,DF]2 | C,2 [G,C^E]2!ped-up!!ped! [G,CE]2 | %27
 C,2 [G,C^E]2!ped-up!!ped! [G,CE]2 | A,,2 [A,!courtesy!=E]2 [A,E]2 | %29
!ped! A,,2 [A,E]2!ped-up!!ped! [A,E]2!ped-up! | D,2 [B,D]2!ped-up!!ped! [B,D]2 | %31
 D,2 [B,D]2!ped-up!!ped! [B,D]2 | E,2 [CE]2!ped-up!!ped! [CE]2 | E,2 [CE]2!ped-up!!ped! [CE]2 | %34
 E,2 [DE]2!ped-up!!ped! [DE]2 | E,2 [DE]2 [DE]2 |1!ped! A,,2 [A,CE]2 [A,CE]2!ped-up! | %37
!ped! A,,2 [A,CE]2 [A,CE]2!ped-up! :|2!ped! E,2 [CE]2 [CE]2!ped-up! || %39
[M:2/4]!ped! [CE]2 z2 |] x2!ped-up! %40
V:3
 x6 | x6 | x4 (f2- | f2) (fagf | x4 e2- | e2) AcBA | x4 e2- | e2 (egfe | x4 e2- | e2) cBA=G | %10
 x4 f2- | f2 (bagf | x4 e2- | e2) dcBA | x4 e2- | e2 f2 g2 | x4 e2- | e2 ce^dc |: x6 | x2 c^e^dc | %20
 [cf]4 [^Bf]2- | [Bf]2 [cf]2 [^df]2 | [c^e]4 [ce]2- | [ce]2 c^e^dc | [cf]4 [^Bf]2- | %25
 [Bf]2 [cf]2 [^df]2 | [c^e]4 [ce]2- | [ce]2 x4 | x6 | z2 =gbag | x6 | z2!8va(! f'a'g'f' | %32
 e'4 e'2- | e'2!8va)! e4 | f4 e2- | e2 !wedge!f2 !wedge!g2 |1 a4 e2- | e2 x4 :|2 x6 ||[M:2/4] x4 |] %40

